packages/bezier-icons/icons/linkedin.svg

<svg width="24" height="24" viewBox="0 0 24 24" fill="none" xmlns="http://www.w3.org/2000/svg">
<path d="M19.6032 3H4.39815C3.62575 3 3 3.62575 3 4.39815V19.6032C3 20.3757 3.62575 21.0014 4.39815 21.0014H19.6032C20.3757 21.0014 21.0014 20.3757 21.0014 19.6032V4.39815C21 3.62575 20.3743 3 19.6032 3ZM8.45992 18.2987H5.78374V9.74913H8.45992V18.2987ZM7.11624 8.57027C6.26143 8.57027 5.56864 7.87747 5.56864 7.02266C5.56864 6.16784 6.26143 5.47505 7.11624 5.47505C7.97106 5.47505 8.66385 6.16784 8.66385 7.02266C8.66385 7.87747 7.97106 8.57027 7.11624 8.57027ZM18.4314 14.561C18.4286 15.8069 18.43 17.0528 18.43 18.2987H15.7622C15.7622 18.2987 15.7622 17.5137 15.7622 17.469C15.7622 16.522 15.7622 15.5764 15.7622 14.6294C15.7622 13.7969 15.8655 12.4756 15.061 12.037C14.5302 11.7479 13.7802 11.8177 13.336 12.2437C13.0133 12.5524 12.8918 13.0022 12.8388 13.4449C12.8108 13.6712 12.8024 13.9003 12.8024 14.128C12.8024 14.1964 12.8024 14.262 12.8024 14.3263V18.3001H12.7899H11.9337H10.1221V9.74913H12.6656L12.6642 10.9112H12.6739C12.7103 10.8498 12.7633 10.7981 12.7913 10.7324C13.5064 9.05075 16.6589 8.98091 17.7553 10.6151C17.9942 10.9727 18.1394 11.3861 18.2372 11.8024C18.3685 12.3625 18.4118 12.9323 18.4258 13.5036C18.4342 13.8556 18.4314 14.209 18.4314 14.561Z" fill="#313234"/>
</svg>

<svg xmlns="http://www.w3.org/2000/svg" width="24" height="24" fill="none" viewBox="0 0 24 24"><path fill="#313234" d="M19.603 3H4.398C3.626 3 3 3.626 3 4.398v15.205c0 .773.626 1.398 1.398 1.398h15.205c.773 0 1.398-.625 1.398-1.398V4.398A1.4 1.4 0 0 0 19.603 3M8.46 18.299H5.784v-8.55H8.46zM7.116 8.57a1.547 1.547 0 1 1 0-3.095 1.547 1.547 0 0 1 0 3.095m11.315 5.991q-.002 1.869-.001 3.738h-2.668v-3.67c0-.832.104-2.153-.701-2.592-.53-.29-1.28-.22-1.725.207-.323.308-.444.758-.497 1.2a6 6 0 0 0-.037.684V18.3h-2.68V9.75h2.544l-.002 1.161h.01c.036-.061.09-.113.117-.179.715-1.681 3.868-1.751 4.964-.117.24.358.384.771.482 1.187.132.56.175 1.13.189 1.702.008.352.005.705.005 1.057"/></svg>
